/* XPM */
static char *exit_upscaled[] = {
/* columns rows colors chars-per-pixel */
"64 64 7 1 ",
"  c #FFA200",
". c #C37100",
"X c black",
"o c #B21030",
"O c #794100",
"+ c #DB4161",
"@ c white",
/* pixels */
"                                                            ....",
"                                                            ....",
"                                                            ....",
"                                                            ....",
"                        XXXXXXXXXXXXXXXXXXXX....................",
"                        XXXXXXXXXXXXXXXXXXXX....................",
"                        XXXXXXXXXXXXXXXXXXXX....................",
"                        XXXXXXXXXXXXXXXXXXXX....................",
"            ....    XXXXXXXXXXXXXXXXXXXXXXXXXXXX................",
"            ....    XXXXXXXXXXXXXXXXXXXXXXXXXXXX................",
"            ....    XXXXXXXXXXXXXXXXXXXXXXXXXXXX................",
"            ....    XXXXXXXXXXXXXXXXXXXXXXXXXXXX................",
"        ....    XXXXXXXXXXXXooooXXXXooooXXXXXXXXXXXX............",
"        ....    XXXXXXXXXXXXooooXXXXooooXXXXXXXXXXXX............",
"        ....    XXXXXXXXXXXXooooXXXXooooXXXXXXXXXXXX............",
"        ....    XXXXXXXXXXXXooooXXXXooooXXXXXXXXXXXX............",
"........    XXXXXXXXXXXXooooooooXXXXooooooooXXXXXXXXXXXXOOOO....",
"........    XXXXXXXXXXXXooooooooXXXXooooooooXXXXXXXXXXXXOOOO....",
"........    XXXXXXXXXXXXooooooooXXXXooooooooXXXXXXXXXXXXOOOO....",
"........    XXXXXXXXXXXXooooooooXXXXooooooooXXXXXXXXXXXXOOOO....",
"............XXXXXXXXooooooooooooXXXXooooooooooooXXXXXXXX....OOOO",
"............XXXXXXXXooooooooooooXXXXooooooooooooXXXXXXXX....OOOO",
"............XXXXXXXXooooooooooooXXXXooooooooooooXXXXXXXX....OOOO",
"............XXXXXXXXooooooooooooXXXXooooooooooooXXXXXXXX....OOOO",
"OOOOOOOOOOOOXXXXooooooooooooooooXXXXooooooooooooooooXXXXOOOOOOOO",
"OOOOOOOOOOOOXXXXooooooooooooooooXXXXooooooooooooooooXXXXOOOOOOOO",
"OOOOOOOOOOOOXXXXooooooooooooooooXXXXooooooooooooooooXXXXOOOOOOOO",
"OOOOOOOOOOOOXXXXooooooooooooooooXXXXooooooooooooooooXXXXOOOOOOOO",
"XXXXXXXXXXXXXXXXoooooooooooo++++XXXX++++ooooooooooooXXXXXXXXXXXX",
"XXXXXXXXXXXXXXXXoooooooooooo++++XXXX++++ooooooooooooXXXXXXXXXXXX",
"XXXXXXXXXXXXXXXXoooooooooooo++++XXXX++++ooooooooooooXXXXXXXXXXXX",
"XXXXXXXXXXXXXXXXoooooooooooo++++XXXX++++ooooooooooooXXXXXXXXXXXX",
"XXXX    XXXXoooooooo++++++++++++XXXX++++++++ooooooooooooXXXX....",
"XXXX    XXXXoooooooo++++++++++++XXXX++++++++ooooooooooooXXXX....",
"XXXX    XXXXoooooooo++++++++++++XXXX++++++++ooooooooooooXXXX....",
"XXXX    XXXXoooooooo++++++++++++XXXX++++++++ooooooooooooXXXX....",
"XXXX    XXXX        ++++++++++++XXXX++++++++oooo        XXXX....",
"XXXX    XXXX        ++++++++++++XXXX++++++++oooo        XXXX....",
"XXXX    XXXX        ++++++++++++XXXX++++++++oooo        XXXX....",
"XXXX    XXXX        ++++++++++++XXXX++++++++oooo        XXXX....",
"XXXX    XXXXXXXXXXXX++++++++            ++++++++XXXXXXXXXXXX....",
"XXXX    XXXXXXXXXXXX++++++++            ++++++++XXXXXXXXXXXX....",
"XXXX    XXXXXXXXXXXX++++++++            ++++++++XXXXXXXXXXXX....",
"XXXX    XXXXXXXXXXXX++++++++            ++++++++XXXXXXXXXXXX....",
"XXXX....XXXXoooo++++++++++++    XXXX    ++++++++ooooooooXXXXOOOO",
"XXXX....XXXXoooo++++++++++++    XXXX    ++++++++ooooooooXXXXOOOO",
"XXXX....XXXXoooo++++++++++++    XXXX    ++++++++ooooooooXXXXOOOO",
"XXXX....XXXXoooo++++++++++++    XXXX    ++++++++ooooooooXXXXOOOO",
"XXXX....XXXX        ++++++++XXXXXXXXXXXX++++++++        XXXXOOOO",
"XXXX....XXXX        ++++++++XXXXXXXXXXXX++++++++        XXXXOOOO",
"XXXX....XXXX        ++++++++XXXXXXXXXXXX++++++++        XXXXOOOO",
"XXXX....XXXX        ++++++++XXXXXXXXXXXX++++++++        XXXXOOOO",
"XXXX....XXXXXXXXXXXXoooooooo++++XXXX++++ooooooooXXXXXXXXXXXXOOOO",
"XXXX....XXXXXXXXXXXXoooooooo++++XXXX++++ooooooooXXXXXXXXXXXXOOOO",
"XXXX....XXXXXXXXXXXXoooooooo++++XXXX++++ooooooooXXXXXXXXXXXXOOOO",
"XXXX....XXXXXXXXXXXXoooooooo++++XXXX++++ooooooooXXXXXXXXXXXXOOOO",
"XXXXXXXXXXXXooooooooooooooooooooXXXXooooooooooooooooooooXXXXXXXX",
"XXXXXXXXXXXXooooooooooooooooooooXXXXooooooooooooooooooooXXXXXXXX",
"XXXXXXXXXXXXooooooooooooooooooooXXXXooooooooooooooooooooXXXXXXXX",
"XXXXXXXXXXXXooooooooooooooooooooXXXXooooooooooooooooooooXXXXXXXX",
"XXXXXXXXXXXXXXXXXXXXXXXXXXXXXXXXXXXXXXXXXXXXXXXXXXXXXXXXXXXXXXXX",
"XXXXXXXXXXXXXXXXXXXXXXXXXXXXXXXXXXXXXXXXXXXXXXXXXXXXXXXXXXXXXXXX",
"XXXXXXXXXXXXXXXXXXXXXXXXXXXXXXXXXXXXXXXXXXXXXXXXXXXXXXXXXXXXXXXX",
"XXXXXXXXXXXXXXXXXXXXXXXXXXXXXXXXXXXXXXXXXXXXXXXXXXXXXXXXXXXXXXXX"
};
