/* XPM */
static char *ground_upscaled[] = {
/* columns rows colors chars-per-pixel */
"64 64 4 1 ",
"  c #8A8A00",
". c #495900",
"X c black",
"o c white",
/* pixels */
"                        ....                                    ",
"                        ....                                    ",
"                        ....                                    ",
"                        ....                                    ",
"                        ....        ....                        ",
"                        ....        ....                        ",
"                        ....        ....                        ",
"                        ....        ....                        ",
"....                    ....    ....    ....                    ",
"....                    ....    ....    ....                    ",
"....                    ....    ....    ....                    ",
"....                    ....    ....    ....                    ",
"                        ....                    ....            ",
"                        ....                    ....            ",
"                        ....                    ....            ",
"                        ....                    ....            ",
"....                ....XXXX                    ....            ",
"....                ....XXXX                    ....            ",
"....                ....XXXX                    ....            ",
"....                ....XXXX                    ....            ",
"................XXXXXXXXXXXXXXXX................XXXX............",
"................XXXXXXXXXXXXXXXX................XXXX............",
"................XXXXXXXXXXXXXXXX................XXXX............",
"................XXXXXXXXXXXXXXXX................XXXX............",
"........                                                    ....",
"........                                                    ....",
"........                                                    ....",
"........                                                    ....",
"....                        ....    ....    ....                ",
"....                        ....    ....    ....                ",
"....                        ....    ....    ....                ",
"....                        ....    ....    ....                ",
"....            ....    ........        ....                    ",
"....            ....    ........        ....                    ",
"....            ....    ........        ....                    ",
"....            ....    ........        ....                    ",
"....            ............                                    ",
"....            ............                                    ",
"....            ............                                    ",
"....            ............                                    ",
"XXXX            ........                                        ",
"XXXX            ........                                        ",
"XXXX            ........                                        ",
"XXXX            ........                                        ",
"            ....    ....                                        ",
"            ....    ....                                        ",
"            ....    ....                                        ",
"            ....    ....                                        ",
"                ....    ....                        ....        ",
"                ....    ....                        ....        ",
"                ....    ....                        ....        ",
"                ....    ....                        ....        ",
"                ............                        ....        ",
"                ............                        ....        ",
"                ............                        ....        ",
"                ............                        ....        ",
"    ....                ....                    ....        ....",
"    ....                ....                    ....        ....",
"    ....                ....                    ....        ....",
"    ....                ....                    ....        ....",
"........................XXXX....XXXXXXXXXXXX....XXXX............",
"........................XXXX....XXXXXXXXXXXX....XXXX............",
"........................XXXX....XXXXXXXXXXXX....XXXX............",
"........................XXXX....XXXXXXXXXXXX....XXXX............"
};
