/* XPM */
static char *player_upscaled[] = {
/* columns rows colors chars-per-pixel */
"64 64 6 1 ",
"  c black",
". c #B21030",
"X c #C37100",
"o c #DB4161",
"O c #FFA200",
"+ c None",
/* pixels */
"++++++++++++++++++++++++++++OOOOOOOO++++++++++++++++++++++++++++",
"++++++++++++++++++++++++++++OOOOOOOO++++++++++++++++++++++++++++",
"++++++++++++++++++++++++++++OOOOOOOO++++++++++++++++++++++++++++",
"++++++++++++++++++++++++++++OOOOOOOO++++++++++++++++++++++++++++",
"++++++++++++++++++++++++++++XXXX    ++++++++++++++++++++++++++++",
"++++++++++++++++++++++++++++XXXX    ++++++++++++++++++++++++++++",
"++++++++++++++++++++++++++++XXXX    ++++++++++++++++++++++++++++",
"++++++++++++++++++++++++++++XXXX    ++++++++++++++++++++++++++++",
"++++++++++++++++++++    ................    ++++++++++++++++++++",
"++++++++++++++++++++    ................    ++++++++++++++++++++",
"++++++++++++++++++++    ................    ++++++++++++++++++++",
"++++++++++++++++++++    ................    ++++++++++++++++++++",
"++++++++++++++++    ....oooooooooooooooo....    ++++++++++++++++",
"++++++++++++++++    ....oooooooooooooooo....    ++++++++++++++++",
"++++++++++++++++    ....oooooooooooooooo....    ++++++++++++++++",
"++++++++++++++++    ....oooooooooooooooo....    ++++++++++++++++",
"++++++++++++    ....                        ....    ++++++++++++",
"++++++++++++    ....                        ....    ++++++++++++",
"++++++++++++    ....                        ....    ++++++++++++",
"++++++++++++    ....                        ....    ++++++++++++",
"++++++++++++        oooooooooooooooooooooooo        ++++++++++++",
"++++++++++++        oooooooooooooooooooooooo        ++++++++++++",
"++++++++++++        oooooooooooooooooooooooo        ++++++++++++",
"++++++++++++        oooooooooooooooooooooooo        ++++++++++++",
"++++++++++++    oooo    oooo        oooo    oooo    ++++++++++++",
"++++++++++++    oooo    oooo        oooo    oooo    ++++++++++++",
"++++++++++++    oooo    oooo        oooo    oooo    ++++++++++++",
"++++++++++++    oooo    oooo        oooo    oooo    ++++++++++++",
"++++++++++++    ....    ....        ....    ....    ++++++++++++",
"++++++++++++    ....    ....        ....    ....    ++++++++++++",
"++++++++++++    ....    ....        ....    ....    ++++++++++++",
"++++++++++++    ....    ....        ....    ....    ++++++++++++",
"++++++++++++    ....    OOOO        OOOO    ....    ++++++++++++",
"++++++++++++    ....    OOOO        OOOO    ....    ++++++++++++",
"++++++++++++    ....    OOOO        OOOO    ....    ++++++++++++",
"++++++++++++    ....    OOOO        OOOO    ....    ++++++++++++",
"++++++++++++            OOOO        OOOO            ++++++++++++",
"++++++++++++            OOOO        OOOO            ++++++++++++",
"++++++++++++            OOOO        OOOO            ++++++++++++",
"++++++++++++            OOOO        OOOO            ++++++++++++",
"++++++++    XXXX........                ....    XXXX    ++++++++",
"++++++++    XXXX........                ....    XXXX    ++++++++",
"++++++++    XXXX........                ....    XXXX    ++++++++",
"++++++++    XXXX........                ....    XXXX    ++++++++",
"++++    XXXXOOOO    ........oooooooo........    OOOOXXXX    ++++",
"++++    XXXXOOOO    ........oooooooo........    OOOOXXXX    ++++",
"++++    XXXXOOOO    ........oooooooo........    OOOOXXXX    ++++",
"++++    XXXXOOOO    ........oooooooo........    OOOOXXXX    ++++",
"++++    XXXXXXXX        ................        XXXXXXXX    ++++",
"++++    XXXXXXXX        ................        XXXXXXXX    ++++",
"++++    XXXXXXXX        ................        XXXXXXXX    ++++",
"++++    XXXXXXXX        ................        XXXXXXXX    ++++",
"++++++++                                                ++++++++",
"++++++++                                                ++++++++",
"++++++++                                                ++++++++",
"++++++++                                                ++++++++",
"++++++++++++++++    ....oooo++++++++oooo....    ++++++++++++++++",
"++++++++++++++++    ....oooo++++++++oooo....    ++++++++++++++++",
"++++++++++++++++    ....oooo++++++++oooo....    ++++++++++++++++",
"++++++++++++++++    ....oooo++++++++oooo....    ++++++++++++++++",
"++++++++++++++++++++++++++++++++++++++++++++++++++++++++++++++++",
"++++++++++++++++++++++++++++++++++++++++++++++++++++++++++++++++",
"++++++++++++++++++++++++++++++++++++++++++++++++++++++++++++++++",
"++++++++++++++++++++++++++++++++++++++++++++++++++++++++++++++++"
};
