/* XPM */
static char *wall_upscaled[] = {
/* columns rows colors chars-per-pixel */
"64 64 5 1 ",
"  c black",
". c #C37100",
"X c #FFA200",
"o c #794100",
"O c white",
/* pixels */
"    ....XXXXXXXXXXXXXXXXXXXXXXXXXXXXXXXXXXXXXXXXXXXXXXXXXXXX....",
"    ....XXXXXXXXXXXXXXXXXXXXXXXXXXXXXXXXXXXXXXXXXXXXXXXXXXXX....",
"    ....XXXXXXXXXXXXXXXXXXXXXXXXXXXXXXXXXXXXXXXXXXXXXXXXXXXX....",
"    ....XXXXXXXXXXXXXXXXXXXXXXXXXXXXXXXXXXXXXXXXXXXXXXXXXXXX....",
"    XXXXXXXXXXXXXXXXXXXXXXXXXXXXXXXXXXXXXXXXXXXXXXXXXXXXXXXXXXXX",
"    XXXXXXXXXXXXXXXXXXXXXXXXXXXXXXXXXXXXXXXXXXXXXXXXXXXXXXXXXXXX",
"    XXXXXXXXXXXXXXXXXXXXXXXXXXXXXXXXXXXXXXXXXXXXXXXXXXXXXXXXXXXX",
"    XXXXXXXXXXXXXXXXXXXXXXXXXXXXXXXXXXXXXXXXXXXXXXXXXXXXXXXXXXXX",
"    ........XXXXXXXXXXXXXXXXXXXXXXXXXXXXXXXXXXXXXXXXXXXXXXXXXXXX",
"    ........XXXXXXXXXXXXXXXXXXXXXXXXXXXXXXXXXXXXXXXXXXXXXXXXXXXX",
"    ........XXXXXXXXXXXXXXXXXXXXXXXXXXXXXXXXXXXXXXXXXXXXXXXXXXXX",
"    ........XXXXXXXXXXXXXXXXXXXXXXXXXXXXXXXXXXXXXXXXXXXXXXXXXXXX",
"    ....XXXXXXXXXXXXXXXXXXXXXXXXXXXXXXXXXXXXXXXXXXXXXXXX....XXXX",
"    ....XXXXXXXXXXXXXXXXXXXXXXXXXXXXXXXXXXXXXXXXXXXXXXXX....XXXX",
"    ....XXXXXXXXXXXXXXXXXXXXXXXXXXXXXXXXXXXXXXXXXXXXXXXX....XXXX",
"    ....XXXXXXXXXXXXXXXXXXXXXXXXXXXXXXXXXXXXXXXXXXXXXXXX....XXXX",
"    XXXXXXXXXXXXXXXX....XXXXXXXXXXXXXXXXXXXXXXXXoooooooo....XXXX",
"    XXXXXXXXXXXXXXXX....XXXXXXXXXXXXXXXXXXXXXXXXoooooooo....XXXX",
"    XXXXXXXXXXXXXXXX....XXXXXXXXXXXXXXXXXXXXXXXXoooooooo....XXXX",
"    XXXXXXXXXXXXXXXX....XXXXXXXXXXXXXXXXXXXXXXXXoooooooo....XXXX",
"    ....XXXX....XXXXXXXXooooXXXXXXXXXXXXXXXXooooooooXXXXXXXXXXXX",
"    ....XXXX....XXXXXXXXooooXXXXXXXXXXXXXXXXooooooooXXXXXXXXXXXX",
"    ....XXXX....XXXXXXXXooooXXXXXXXXXXXXXXXXooooooooXXXXXXXXXXXX",
"    ....XXXX....XXXXXXXXooooXXXXXXXXXXXXXXXXooooooooXXXXXXXXXXXX",
"    ........oooooooo........oooooooo........oooo................",
"    ........oooooooo........oooooooo........oooo................",
"    ........oooooooo........oooooooo........oooo................",
"    ........oooooooo........oooooooo........oooo................",
"    oooooooooooooooooooo    oooo        oooooooo    oooooooooooo",
"    oooooooooooooooooooo    oooo        oooooooo    oooooooooooo",
"    oooooooooooooooooooo    oooo        oooooooo    oooooooooooo",
"    oooooooooooooooooooo    oooo        oooooooo    oooooooooooo",
"        XXXX....XXXXXXXXXXXXXXXXoooo....XXXXXXXXXXXXXXXXXXXXXXXX",
"        XXXX....XXXXXXXXXXXXXXXXoooo....XXXXXXXXXXXXXXXXXXXXXXXX",
"        XXXX....XXXXXXXXXXXXXXXXoooo....XXXXXXXXXXXXXXXXXXXXXXXX",
"        XXXX....XXXXXXXXXXXXXXXXoooo....XXXXXXXXXXXXXXXXXXXXXXXX",
"    XXXXXXXXXXXXXXXXXXXXXXXXXXXXooooXXXXXXXXXXXXXXXXXXXXXXXXXXXX",
"    XXXXXXXXXXXXXXXXXXXXXXXXXXXXooooXXXXXXXXXXXXXXXXXXXXXXXXXXXX",
"    XXXXXXXXXXXXXXXXXXXXXXXXXXXXooooXXXXXXXXXXXXXXXXXXXXXXXXXXXX",
"    XXXXXXXXXXXXXXXXXXXXXXXXXXXXooooXXXXXXXXXXXXXXXXXXXXXXXXXXXX",
"    XXXXXXXXXXXXXXXXXXXXXXXXXXXXooooXXXXXXXXXXXXXXXXXXXXXXXXXXXX",
"    XXXXXXXXXXXXXXXXXXXXXXXXXXXXooooXXXXXXXXXXXXXXXXXXXXXXXXXXXX",
"    XXXXXXXXXXXXXXXXXXXXXXXXXXXXooooXXXXXXXXXXXXXXXXXXXXXXXXXXXX",
"    XXXXXXXXXXXXXXXXXXXXXXXXXXXXooooXXXXXXXXXXXXXXXXXXXXXXXXXXXX",
"    XXXXXXXXXXXXXXXXXXXXXXXXXXXXooooXXXXXXXX........XXXXXXXXXXXX",
"    XXXXXXXXXXXXXXXXXXXXXXXXXXXXooooXXXXXXXX........XXXXXXXXXXXX",
"    XXXXXXXXXXXXXXXXXXXXXXXXXXXXooooXXXXXXXX........XXXXXXXXXXXX",
"    XXXXXXXXXXXXXXXXXXXXXXXXXXXXooooXXXXXXXX........XXXXXXXXXXXX",
"    XXXXXXXXXXXXXXXXXXXX....XXXXoooo........ooooXXXXXXXXXXXXXXXX",
"    XXXXXXXXXXXXXXXXXXXX....XXXXoooo........ooooXXXXXXXXXXXXXXXX",
"    XXXXXXXXXXXXXXXXXXXX....XXXXoooo........ooooXXXXXXXXXXXXXXXX",
"    XXXXXXXXXXXXXXXXXXXX....XXXXoooo........ooooXXXXXXXXXXXXXXXX",
"    ....XXXXXXXXXXXXXXXXXXXX....    ....ooooXXXXXXXXXXXXXXXXXXXX",
"    ....XXXXXXXXXXXXXXXXXXXX....    ....ooooXXXXXXXXXXXXXXXXXXXX",
"    ....XXXXXXXXXXXXXXXXXXXX....    ....ooooXXXXXXXXXXXXXXXXXXXX",
"    ....XXXXXXXXXXXXXXXXXXXX....    ....ooooXXXXXXXXXXXXXXXXXXXX",
"    XXXXXXXXXXXXXXXXXXXXXXXXXXXXoooooooo    oooooooooooooooooooo",
"    XXXXXXXXXXXXXXXXXXXXXXXXXXXXoooooooo    oooooooooooooooooooo",
"    XXXXXXXXXXXXXXXXXXXXXXXXXXXXoooooooo    oooooooooooooooooooo",
"    XXXXXXXXXXXXXXXXXXXXXXXXXXXXoooooooo    oooooooooooooooooooo",
"    XXXXXXXXXXXXXXXXXXXXXXXXXXXX    ....XXXXXXXXXXXXXXXXXXXXoooo",
"    XXXXXXXXXXXXXXXXXXXXXXXXXXXX    ....XXXXXXXXXXXXXXXXXXXXoooo",
"    XXXXXXXXXXXXXXXXXXXXXXXXXXXX    ....XXXXXXXXXXXXXXXXXXXXoooo",
"    XXXXXXXXXXXXXXXXXXXXXXXXXXXX    ....XXXXXXXXXXXXXXXXXXXXoooo"
};
